icons/solid/fire.svg

<svg width="24" height="24" viewBox="0 0 24 24" fill="none" xmlns="http://www.w3.org/2000/svg">
<path fill-rule="evenodd" clip-rule="evenodd" d="M11.4453 2.16793C11.8715 1.88382 12.4434 1.96765 12.7701 2.3621C13.2379 2.9269 14.6221 4.29293 16.2169 5.04859C16.2325 5.05596 16.2479 5.06374 16.263 5.07191C19.0811 6.59005 21 9.57017 21 13C21 17.9705 16.9706 22 12 22C7.02944 22 3 17.9705 3 13C3 10.6379 3.91128 8.48643 5.3996 6.88154C5.62733 6.63598 5.96285 6.52072 6.2934 6.57449C6.62395 6.62826 6.90564 6.84393 7.04379 7.149C7.1714 7.43081 7.51539 7.81173 8.03585 8.21531C8.06345 8.23671 8.09121 8.25792 8.11908 8.27892C8.31899 6.86837 8.75096 5.68732 9.26359 4.74051C9.95 3.47275 10.7941 2.60207 11.4453 2.16793ZM11.9205 10.185C12.3572 9.87447 12.9612 9.9634 13.2898 10.3867C13.332 10.441 13.4478 10.5735 13.6131 10.7214C13.7786 10.8695 13.9613 11.0038 14.1351 11.0916C14.151 11.0997 14.1667 11.1081 14.1822 11.1171C15.283 11.7496 16 12.9675 16 14.3333C16 16.2966 14.4928 18 12.5 18C10.5072 18 9 16.2966 9 14.3333C9 13.3905 9.34112 12.5208 9.91185 11.8644C10.1381 11.6042 10.4824 11.4789 10.823 11.5328C10.8511 11.5373 10.8788 11.5429 10.9062 11.5496C10.9447 11.4578 10.9855 11.37 11.028 11.2863C11.2811 10.7876 11.6104 10.4056 11.9205 10.185Z" fill="currentColor"/>
</svg>

<svg width="24" height="24" fill="none" xmlns="http://www.w3.org/2000/svg"><path fill-rule="evenodd" clip-rule="evenodd" d="M11.445 2.168a1 1 0 011.325.194c.468.565 1.852 1.93 3.447 2.687A8.998 8.998 0 0121 13 9 9 0 115.4 6.882a1 1 0 011.644.267c.127.282.471.663.992 1.066l.083.064c.2-1.41.632-2.592 1.145-3.538.686-1.268 1.53-2.139 2.181-2.573zm.476 8.017a1 1 0 011.369.202c.042.054.158.186.323.334a2.536 2.536 0 00.57.396c1.1.633 1.817 1.85 1.817 3.216C16 16.297 14.493 18 12.5 18S9 16.297 9 14.333c0-.943.341-1.812.912-2.469a1 1 0 01.994-.314c.039-.092.08-.18.122-.264.253-.498.582-.88.893-1.101z" fill="currentColor"/></svg>
